austria/municipalities/70342.svg

<?xml version="1.0" encoding="UTF-8"?>
<!DOCTYPE svg PUBLIC "-//W3C//DTD SVG 1.1//EN" "http://www.w3.org/Graphics/SVG/1.1/DTD/svg11.dtd">
<svg xmlns="http://www.w3.org/2000/svg" version="1.1" width="166px" height="192px" style="shape-rendering:geometricPrecision; text-rendering:geometricPrecision; image-rendering:optimizeQuality; fill-rule:evenodd; clip-rule:evenodd" xmlns:xlink="http://www.w3.org/1999/xlink">
<g><path style="opacity:1" fill="#0a0b09" d="M -0.5,-0.5 C 54.8333,-0.5 110.167,-0.5 165.5,-0.5C 165.5,39.5 165.5,79.5 165.5,119.5C 157.045,159.621 132.712,183.621 92.5,191.5C 85.5,191.5 78.5,191.5 71.5,191.5C 30.925,182.925 6.92504,158.259 -0.5,117.5C -0.5,78.1667 -0.5,38.8333 -0.5,-0.5 Z"/></g>
<g><path style="opacity:1" fill="#185b2a" d="M 136.5,11.5 C 138.296,12.7927 139.963,14.2927 141.5,16C 136.631,21.0365 131.631,25.8698 126.5,30.5C 124.264,31.3891 122.264,32.7224 120.5,34.5C 116.849,31.3492 113.349,28.0158 110,24.5C 103.631,30.7019 97.4639,37.0352 91.5,43.5C 86.7031,48.798 81.7031,53.9646 76.5,59C 77.7101,60.0391 78.7101,61.2058 79.5,62.5C 81.0908,65.4309 83.0908,68.0976 85.5,70.5C 84.5,72.1667 83.1667,73.5 81.5,74.5C 75.9254,78.5675 70.7587,83.2341 66,88.5C 62.9641,85.2956 59.7974,82.2956 56.5,79.5C 56.1034,78.475 55.4368,78.3083 54.5,79C 49.6301,83.7021 44.9634,88.5354 40.5,93.5C 36.8333,97.8333 32.8333,101.833 28.5,105.5C 25.2559,107.071 22.5892,109.405 20.5,112.5C 24.2563,116.247 27.5896,120.247 30.5,124.5C 23.5899,129.904 17.0899,135.904 11,142.5C 6.90434,134.308 4.57101,125.642 4,116.5C 3.50001,78.8348 3.33335,41.1681 3.5,3.5C 46.168,3.33334 88.8346,3.50001 131.5,4C 130.692,4.30762 130.025,4.80762 129.5,5.5C 131.853,7.52272 134.186,9.52272 136.5,11.5 Z"/></g>
<g><path style="opacity:1" fill="#fcfcfc" d="M 160.5,39.5 C 152.702,46.7975 145.035,54.2975 137.5,62C 136.207,62.49 134.873,62.6567 133.5,62.5C 131.78,59.2689 129.447,56.4356 126.5,54C 125.5,53.3333 124.5,53.3333 123.5,54C 116.833,60.6667 110.167,67.3333 103.5,74C 107.016,77.3486 110.349,80.8486 113.5,84.5C 104.479,93.854 95.4786,103.187 86.5,112.5C 84.264,113.389 82.264,114.722 80.5,116.5C 79.8165,116.137 79.1499,115.804 78.5,115.5C 76.8333,113.167 74.8333,111.167 72.5,109.5C 72.4894,107.314 71.4894,106.481 69.5,107C 62.8333,113.667 56.1667,120.333 49.5,127C 50.0442,127.717 50.7109,128.217 51.5,128.5C 53.8333,131.5 56.5,134.167 59.5,136.5C 51.8898,145.447 43.8898,154.114 35.5,162.5C 33.2108,164.006 30.8774,165.173 28.5,166C 21.6235,159.57 15.9568,152.236 11.5,144C 18.036,137.631 24.3694,131.131 30.5,124.5C 31.2891,124.217 31.9558,123.717 32.5,123C 28.9842,119.651 25.6508,116.151 22.5,112.5C 24.5227,110.147 26.5227,107.814 28.5,105.5C 32.8333,101.833 36.8333,97.8333 40.5,93.5C 46.1098,89.2285 51.4431,84.5618 56.5,79.5C 59.0604,83.5698 62.2271,87.2365 66,90.5C 71.3697,85.298 76.5364,79.9647 81.5,74.5C 83.1667,73.5 84.5,72.1667 85.5,70.5C 86.525,70.1034 86.6917,69.4368 86,68.5C 83.9633,66.2941 81.7966,64.2941 79.5,62.5C 78.7101,61.2058 77.7101,60.0391 76.5,59C 81.7031,53.9646 86.7031,48.798 91.5,43.5C 98.0763,38.4298 104.243,32.7631 110,26.5C 113.349,30.0158 116.849,33.3492 120.5,36.5C 122.854,34.8122 124.854,32.8122 126.5,30.5C 131.631,25.8698 136.631,21.0365 141.5,16C 139.963,14.2927 138.296,12.7927 136.5,11.5C 134.716,9.05169 133.382,6.38502 132.5,3.5C 142.167,3.5 151.833,3.5 161.5,3.5C 161.812,15.5803 161.479,27.5803 160.5,39.5 Z"/></g>
<g><path style="opacity:1" fill="#222620" d="M 126.5,30.5 C 124.854,32.8122 122.854,34.8122 120.5,36.5C 116.849,33.3492 113.349,30.0158 110,26.5C 104.243,32.7631 98.0763,38.4298 91.5,43.5C 97.4639,37.0352 103.631,30.7019 110,24.5C 113.349,28.0158 116.849,31.3492 120.5,34.5C 122.264,32.7224 124.264,31.3891 126.5,30.5 Z"/></g>
<g><path style="opacity:1" fill="#101f12" d="M 160.5,39.5 C 161.832,51.1476 162.499,63.1476 162.5,75.5C 162.5,87.6714 162.167,99.6714 161.5,111.5C 161.667,87.831 161.5,64.1643 161,40.5C 152.922,49.2487 144.256,57.2487 135,64.5C 133.97,64.1639 133.47,63.4972 133.5,62.5C 134.873,62.6567 136.207,62.49 137.5,62C 145.035,54.2975 152.702,46.7975 160.5,39.5 Z"/></g>
<g><path style="opacity:1" fill="#185b2a" d="M 161.5,111.5 C 157.37,154.463 134.037,179.63 91.5,187C 68.3529,189.467 48.0196,183.134 30.5,168C 32.3734,166.296 34.0401,164.463 35.5,162.5C 44.5788,154.926 53.2455,146.759 61.5,138C 60.9558,137.283 60.2891,136.783 59.5,136.5C 56.5,134.167 53.8333,131.5 51.5,128.5C 56.9043,121.59 62.9043,115.09 69.5,109C 70.5768,108.53 71.5768,108.697 72.5,109.5C 74.8333,111.167 76.8333,113.167 78.5,115.5C 78.7496,116.922 79.583,117.922 81,118.5C 83.0396,116.63 84.8729,114.63 86.5,112.5C 96.7595,103.909 106.426,94.5761 115.5,84.5C 112.349,80.8486 109.016,77.3486 105.5,74C 112,67.5 118.5,61 125,54.5C 127.703,57.3714 130.536,60.0381 133.5,62.5C 133.47,63.4972 133.97,64.1639 135,64.5C 144.256,57.2487 152.922,49.2487 161,40.5C 161.5,64.1643 161.667,87.831 161.5,111.5 Z"/></g>
<g><path style="opacity:1" fill="#0f1a0f" d="M 79.5,62.5 C 81.7966,64.2941 83.9633,66.2941 86,68.5C 86.6917,69.4368 86.525,70.1034 85.5,70.5C 83.0908,68.0976 81.0908,65.4309 79.5,62.5 Z"/></g>
<g><path style="opacity:1" fill="#1b261b" d="M 133.5,62.5 C 130.536,60.0381 127.703,57.3714 125,54.5C 118.5,61 112,67.5 105.5,74C 109.016,77.3486 112.349,80.8486 115.5,84.5C 106.426,94.5761 96.7595,103.909 86.5,112.5C 95.4786,103.187 104.479,93.854 113.5,84.5C 110.349,80.8486 107.016,77.3486 103.5,74C 110.167,67.3333 116.833,60.6667 123.5,54C 124.5,53.3333 125.5,53.3333 126.5,54C 129.447,56.4356 131.78,59.2689 133.5,62.5 Z"/></g>
<g><path style="opacity:1" fill="#3c3a37" d="M 56.5,79.5 C 51.4431,84.5618 46.1098,89.2285 40.5,93.5C 44.9634,88.5354 49.6301,83.7021 54.5,79C 55.4368,78.3083 56.1034,78.475 56.5,79.5 Z"/></g>
<g><path style="opacity:1" fill="#21231f" d="M 81.5,74.5 C 76.5364,79.9647 71.3697,85.298 66,90.5C 62.2271,87.2365 59.0604,83.5698 56.5,79.5C 59.7974,82.2956 62.9641,85.2956 66,88.5C 70.7587,83.2341 75.9254,78.5675 81.5,74.5 Z"/></g>
<g><path style="opacity:1" fill="#101910" d="M 28.5,105.5 C 26.5227,107.814 24.5227,110.147 22.5,112.5C 25.6508,116.151 28.9842,119.651 32.5,123C 31.9558,123.717 31.2891,124.217 30.5,124.5C 27.5896,120.247 24.2563,116.247 20.5,112.5C 22.5892,109.405 25.2559,107.071 28.5,105.5 Z"/></g>
<g><path style="opacity:1" fill="#132114" d="M 72.5,109.5 C 71.5768,108.697 70.5768,108.53 69.5,109C 62.9043,115.09 56.9043,121.59 51.5,128.5C 50.7109,128.217 50.0442,127.717 49.5,127C 56.1667,120.333 62.8333,113.667 69.5,107C 71.4894,106.481 72.4894,107.314 72.5,109.5 Z"/></g>
<g><path style="opacity:1" fill="#242622" d="M 86.5,112.5 C 84.8729,114.63 83.0396,116.63 81,118.5C 79.583,117.922 78.7496,116.922 78.5,115.5C 79.1499,115.804 79.8165,116.137 80.5,116.5C 82.264,114.722 84.264,113.389 86.5,112.5 Z"/></g>
<g><path style="opacity:1" fill="#fdfdfd" d="M -0.5,117.5 C 6.92504,158.259 30.925,182.925 71.5,191.5C 47.5,191.5 23.5,191.5 -0.5,191.5C -0.5,166.833 -0.5,142.167 -0.5,117.5 Z"/></g>
<g><path style="opacity:1" fill="#fdfdfd" d="M 165.5,119.5 C 165.5,143.5 165.5,167.5 165.5,191.5C 141.167,191.5 116.833,191.5 92.5,191.5C 132.712,183.621 157.045,159.621 165.5,119.5 Z"/></g>
<g><path style="opacity:1" fill="#132917" d="M 59.5,136.5 C 60.2891,136.783 60.9558,137.283 61.5,138C 53.2455,146.759 44.5788,154.926 35.5,162.5C 43.8898,154.114 51.8898,145.447 59.5,136.5 Z"/></g>
</svg>

<svg xmlns="http://www.w3.org/2000/svg" width="166" height="192" style="shape-rendering:geometricPrecision;text-rendering:geometricPrecision;image-rendering:optimizeQuality;fill-rule:evenodd;clip-rule:evenodd"><path style="opacity:1" fill="#0a0b09" d="M-.5-.5h166v120c-8.455 40.121-32.788 64.121-73 72h-21c-40.575-8.575-64.575-33.241-72-74V-.5z"/><path style="opacity:1" fill="#185b2a" d="M136.5 11.5a31.418 31.418 0 0 1 5 4.5 306.026 306.026 0 0 1-15 14.5c-2.236.89-4.236 2.222-6 4a148.386 148.386 0 0 1-10.5-10 495.005 495.005 0 0 0-18.5 19 326.911 326.911 0 0 1-15 15.5 14.692 14.692 0 0 1 3 3.5 34.481 34.481 0 0 0 6 8c-1 1.667-2.333 3-4 4-5.575 4.067-10.741 8.734-15.5 14a119.854 119.854 0 0 0-9.5-9c-.397-1.025-1.063-1.192-2-.5a285.313 285.313 0 0 0-14 14.5 102.033 102.033 0 0 1-12 12c-3.244 1.571-5.91 3.905-8 7a83.702 83.702 0 0 1 10 12c-6.91 5.404-13.41 11.404-19.5 18-4.096-8.192-6.429-16.858-7-26-.5-37.665-.667-75.332-.5-113 42.668-.167 85.335 0 128 .5a4.452 4.452 0 0 0-2 1.5c2.353 2.023 4.686 4.023 7 6z"/><path style="opacity:1" fill="#fcfcfc" d="M160.5 39.5a728.998 728.998 0 0 0-23 22.5 8.435 8.435 0 0 1-4 .5c-1.72-3.231-4.053-6.064-7-8.5-1-.667-2-.667-3 0l-20 20a148.213 148.213 0 0 1 10 10.5c-9.021 9.354-18.021 18.687-27 28-2.236.889-4.236 2.222-6 4a44.147 44.147 0 0 0-2-1 25.647 25.647 0 0 0-6-6c-.01-2.186-1.01-3.019-3-2.5l-20 20c.544.717 1.21 1.217 2 1.5 2.333 3 5 5.667 8 8a437.922 437.922 0 0 1-24 26c-2.29 1.506-4.623 2.673-7 3.5a85.916 85.916 0 0 1-17-22 522.24 522.24 0 0 0 19-19.5c.79-.283 1.456-.783 2-1.5a148.386 148.386 0 0 1-10-10.5c2.023-2.353 4.023-4.686 6-7a102.033 102.033 0 0 0 12-12 157.31 157.31 0 0 0 16-14c2.56 4.07 5.727 7.737 9.5 11a348.725 348.725 0 0 0 15.5-16c1.667-1 3-2.333 4-4 1.025-.397 1.192-1.063.5-2a54.554 54.554 0 0 0-6.5-6 14.692 14.692 0 0 0-3-3.5 326.911 326.911 0 0 0 15-15.5c6.576-5.07 12.743-10.737 18.5-17a148.386 148.386 0 0 0 10.5 10 25.65 25.65 0 0 0 6-6 306.026 306.026 0 0 0 15-14.5 31.418 31.418 0 0 0-5-4.5 26.8 26.8 0 0 1-4-8h29c.312 12.08-.021 24.08-1 36z"/><path style="opacity:1" fill="#222620" d="M126.5 30.5a25.65 25.65 0 0 1-6 6 148.386 148.386 0 0 1-10.5-10c-5.757 6.263-11.924 11.93-18.5 17a495.005 495.005 0 0 1 18.5-19 148.386 148.386 0 0 0 10.5 10c1.764-1.778 3.764-3.11 6-4z"/><path style="opacity:1" fill="#101f12" d="M160.5 39.5c1.332 11.648 1.999 23.648 2 36 0 12.171-.333 24.171-1 36 .167-23.669 0-47.336-.5-71a220.083 220.083 0 0 1-26 24c-1.03-.336-1.53-1.003-1.5-2a8.435 8.435 0 0 0 4-.5 728.998 728.998 0 0 1 23-22.5z"/><path style="opacity:1" fill="#185b2a" d="M161.5 111.5c-4.13 42.963-27.463 68.13-70 75.5-23.147 2.467-43.48-3.866-61-19a38.44 38.44 0 0 0 5-5.5 298.228 298.228 0 0 0 26-24.5c-.544-.717-1.21-1.217-2-1.5-3-2.333-5.667-5-8-8 5.404-6.91 11.404-13.41 18-19.5 1.077-.47 2.077-.303 3 .5a25.647 25.647 0 0 1 6 6c.25 1.422 1.083 2.422 2.5 3a46.117 46.117 0 0 0 5.5-6 286.671 286.671 0 0 0 29-28 148.213 148.213 0 0 0-10-10.5L125 54.5a95.284 95.284 0 0 0 8.5 8c-.03.997.47 1.664 1.5 2a220.083 220.083 0 0 0 26-24c.5 23.664.667 47.331.5 71z"/><path style="opacity:1" fill="#0f1a0f" d="M79.5 62.5a54.554 54.554 0 0 1 6.5 6c.692.937.525 1.603-.5 2a34.481 34.481 0 0 1-6-8z"/><path style="opacity:1" fill="#1b261b" d="M133.5 62.5a95.284 95.284 0 0 1-8.5-8L105.5 74a148.213 148.213 0 0 1 10 10.5 286.671 286.671 0 0 1-29 28c8.979-9.313 17.979-18.646 27-28a148.213 148.213 0 0 0-10-10.5l20-20c1-.667 2-.667 3 0 2.947 2.436 5.28 5.269 7 8.5z"/><path style="opacity:1" fill="#3c3a37" d="M56.5 79.5a157.31 157.31 0 0 1-16 14 285.313 285.313 0 0 1 14-14.5c.937-.692 1.603-.525 2 .5z"/><path style="opacity:1" fill="#21231f" d="M81.5 74.5a348.725 348.725 0 0 1-15.5 16c-3.773-3.263-6.94-6.93-9.5-11a119.854 119.854 0 0 1 9.5 9c4.759-5.266 9.925-9.933 15.5-14z"/><path style="opacity:1" fill="#101910" d="M28.5 105.5a3117.118 3117.118 0 0 1-6 7 148.386 148.386 0 0 0 10 10.5c-.544.717-1.21 1.217-2 1.5a83.702 83.702 0 0 0-10-12c2.09-3.095 4.756-5.429 8-7z"/><path style="opacity:1" fill="#132114" d="M72.5 109.5c-.923-.803-1.923-.97-3-.5-6.596 6.09-12.596 12.59-18 19.5-.79-.283-1.456-.783-2-1.5l20-20c1.99-.519 2.99.314 3 2.5z"/><path style="opacity:1" fill="#242622" d="M86.5 112.5a46.117 46.117 0 0 1-5.5 6c-1.417-.578-2.25-1.578-2.5-3 .65.304 1.317.637 2 1 1.764-1.778 3.764-3.111 6-4z"/><path style="opacity:1" fill="#fdfdfd" d="M-.5 117.5c7.425 40.759 31.425 65.425 72 74h-72v-74zM165.5 119.5v72h-73c40.212-7.879 64.545-31.879 73-72z"/><path style="opacity:1" fill="#132917" d="M59.5 136.5c.79.283 1.456.783 2 1.5a298.228 298.228 0 0 1-26 24.5 437.922 437.922 0 0 0 24-26z"/></svg>
